Newaita-dark/actions/22/format-join-node.svg

<svg height="22" viewBox="0 0 22 22" width="22" xmlns="http://www.w3.org/2000/svg"><g fill="#e0e0e0"><path d="m13.644531 1.992188v6.367187h6.367188v-5.457031c0-.503906-.40625-.910156-.910157-.910156zm1.820313 1.816406h2.273437c.25 0 .453125.203125.453125.457031v2.273437h-2.726562zm0 0"/><path d="m8.1875 1.992188v6.367187h-6.367188v-5.457031c0-.503906.40625-.910156.910157-.910156zm-1.820312 1.816406h-2.273438c-.253906 0-.457031.203125-.457031.457031v2.273437h2.730469zm0 0"/><path d="m12.734375 16.089844h7.277344v1.820312h-7.277344zm0 0"/><path d="m7.277344 4.265625h7.277344v1.820313h-7.277344zm0 0"/><path d="m13.1875 10.175781h-4.546875l2.273437 2.730469zm0 0"/><path d="m8.640625 13.816406c-.503906 0-.910156.40625-.910156.910156v4.546876c0 .503906.40625.910156.910156.910156h4.546875c.503906 0 .910156-.40625.910156-.910156v-4.546876c0-.503906-.40625-.910156-.910156-.910156zm1.363281 1.820313h1.820313c.253906 0 .457031.199219.457031.453125v1.820312c0 .25-.203125.453125-.457031.453125h-1.820313c-.25 0-.453125-.203125-.453125-.453125v-1.820312c0-.253906.203125-.453125.453125-.453125zm0 0"/><path d="m1.820312 16.089844h7.277344v1.820312h-7.277344zm0 0"/></g></svg>

<svg xmlns="http://www.w3.org/2000/svg" xmlns:xlink="http://www.w3.org/1999/xlink" width="22px" height="22px" viewBox="0 0 22 22" version="1.1">
<g id="surface1">
     <defs>
  <style id="current-color-scheme" type="text/css">
   .ColorScheme-Text { color:#eeeeee; } .ColorScheme-Highlight { color:#424242; }
  </style>
 </defs>
<path style="fill:currentColor" class="ColorScheme-Text" d="M 13.644531 1.992188 L 13.644531 8.359375 L 20.011719 8.359375 L 20.011719 2.902344 C 20.011719 2.398438 19.605469 1.992188 19.101562 1.992188 Z M 15.464844 3.808594 L 17.738281 3.808594 C 17.988281 3.808594 18.191406 4.011719 18.191406 4.265625 L 18.191406 6.539062 L 15.464844 6.539062 Z M 15.464844 3.808594 "/>
     <defs>
  <style id="current-color-scheme" type="text/css">
   .ColorScheme-Text { color:#eeeeee; } .ColorScheme-Highlight { color:#424242; }
  </style>
 </defs>
<path style="fill:currentColor" class="ColorScheme-Text" d="M 8.1875 1.992188 L 8.1875 8.359375 L 1.820312 8.359375 L 1.820312 2.902344 C 1.820312 2.398438 2.226562 1.992188 2.730469 1.992188 Z M 6.367188 3.808594 L 4.09375 3.808594 C 3.839844 3.808594 3.636719 4.011719 3.636719 4.265625 L 3.636719 6.539062 L 6.367188 6.539062 Z M 6.367188 3.808594 "/>
     <defs>
  <style id="current-color-scheme" type="text/css">
   .ColorScheme-Text { color:#eeeeee; } .ColorScheme-Highlight { color:#424242; }
  </style>
 </defs>
<path style="fill:currentColor" class="ColorScheme-Text" d="M 12.734375 16.089844 L 20.011719 16.089844 L 20.011719 17.910156 L 12.734375 17.910156 Z M 12.734375 16.089844 "/>
     <defs>
  <style id="current-color-scheme" type="text/css">
   .ColorScheme-Text { color:#eeeeee; } .ColorScheme-Highlight { color:#424242; }
  </style>
 </defs>
<path style="fill:currentColor" class="ColorScheme-Text" d="M 7.277344 4.265625 L 14.554688 4.265625 L 14.554688 6.085938 L 7.277344 6.085938 Z M 7.277344 4.265625 "/>
     <defs>
  <style id="current-color-scheme" type="text/css">
   .ColorScheme-Text { color:#eeeeee; } .ColorScheme-Highlight { color:#424242; }
  </style>
 </defs>
<path style="fill:currentColor" class="ColorScheme-Text" d="M 13.1875 10.175781 L 8.640625 10.175781 L 10.914062 12.90625 Z M 13.1875 10.175781 "/>
     <defs>
  <style id="current-color-scheme" type="text/css">
   .ColorScheme-Text { color:#eeeeee; } .ColorScheme-Highlight { color:#424242; }
  </style>
 </defs>
<path style="fill:currentColor" class="ColorScheme-Text" d="M 8.640625 13.816406 C 8.136719 13.816406 7.730469 14.222656 7.730469 14.726562 L 7.730469 19.273438 C 7.730469 19.777344 8.136719 20.183594 8.640625 20.183594 L 13.1875 20.183594 C 13.691406 20.183594 14.097656 19.777344 14.097656 19.273438 L 14.097656 14.726562 C 14.097656 14.222656 13.691406 13.816406 13.1875 13.816406 Z M 10.003906 15.636719 L 11.824219 15.636719 C 12.078125 15.636719 12.28125 15.835938 12.28125 16.089844 L 12.28125 17.910156 C 12.28125 18.160156 12.078125 18.363281 11.824219 18.363281 L 10.003906 18.363281 C 9.753906 18.363281 9.550781 18.160156 9.550781 17.910156 L 9.550781 16.089844 C 9.550781 15.835938 9.753906 15.636719 10.003906 15.636719 Z M 10.003906 15.636719 "/>
     <defs>
  <style id="current-color-scheme" type="text/css">
   .ColorScheme-Text { color:#eeeeee; } .ColorScheme-Highlight { color:#424242; }
  </style>
 </defs>
<path style="fill:currentColor" class="ColorScheme-Text" d="M 1.820312 16.089844 L 9.097656 16.089844 L 9.097656 17.910156 L 1.820312 17.910156 Z M 1.820312 16.089844 "/>
</g>
</svg>
